X:265
T:Three Little Steps
R:jig
M:6/8
L:1/8
K:Fmaj
|: fec A2F | BAF F2c | FGF cdd | cAG GAc |
fec A2F | BAF F2c | FGF d2d | cAF F2z :|
M:9/8
|: Acf fcB Bcc | Gce fgc' b2a | dab- bac' b2a | bag fga g2a |
Acf fcB Bcc | Gce fgc' b2a | dab- bac' b2a | bag fga g2f :|
